X: 38937
T: Susan MacLeod
R: strathspey
M: 4/4
K: Gmajor
|:g|d>ed>c c<BB>A|G>AB<G B<d d2|1 e>fe>d B<gg>e|
d>ed<B e3:|2 g>de<g d>gc<g|B>gA<g G3||
|:B|d>ee>d B<dd>G|G>AB>G B<dB>G|1 e2 e>d c<ee>f|
g>de<g d3:|2 g>de<g d>gc<g|B>gA<g G3||
|:e|d>G (3GGG (3GGG B<G|B>G (3GGG B<dG>g|1 e>A (3AAA (3AAA c<B|
c>A (3AAA c>d e-:|2 g>de<g d>gc<g|B>gA<g G3||
|:d|e<gg>B B<dd>G|G>AB<G B<d d2|1 e<gg>c c<ee>f|
g>de<g B<ge:|2 g>de<g d>gc<g|B>gA<g G3||

